X:1
T:The Loving Little Ones
T:The Loving Little Ones
T:John Henry Kurzenknabe
T:Erias Unangst, 1888
T:Public Domain Courtesy of the Cyber Hymnal™
C:John Henry Kurzenknabe
Z:Public Domain
Z:Courtesy of the Cyber Hymnal™
%%score ( 1 2 ) 3
L:1/8
Q:1/4=110
M:4/4
K:A
V:1 treble 
V:2 treble 
V:3 bass 
V:1
 [CE]2 | [CE]2 [EA]2 [Ec]2 [EA]2 | [DF]2 [FB]2 [FB]2 [FB]2 | [EA]2 [EG]2 [DF]2 [B,E]2 | %4
w: 1.~’Tis|Je- sus loves the|lit- tle ones, And|calls them as His|
w: 2.~Let|lit- tle ones sing|Je- sus’ name, He|loves to hear them|
w: 3.~He|loves to be with|lit- tle ones, And|hear their child- like|
w: 4.~’Tis|Je- sus whom the|lit- tle ones May|call their lov- ing|
 [Ec]6 [CE]2 | [CE]2 [EA]2 [Ec]2 [Ee]2 | [Fd]2 [DF]2 !fermata![FB]2 [FA]2 | %7
w: own; He’s|al- ways with the|lit- tle ones, They’re|
w: sing And|fill His courts with|joy- ful sound, And|
w: prayer; And|ten- der- ly He|takes them up In-|
w: king; ’Tis|He that makes them|an- gels, too, His|
 [EG]2 [EG]2 [Ec]2 [DB]2 | [CA]6 ||"^Refrain" [EA]2 | c4 e4 | [GB]2 [GB]2 [GB]2 E2 | B4 d4 | %13
w: ne- ver left a-|lone.|||||
w: make His prais- es|ring.|The|lov- ing,|lov- ing lit- tle|ones, The|
w: to His lov- ing|care.|||||
w: Name for aye to|sing.|||||
 [Ac]2 [Ac]2 [Ac]2 [EA]2 | c4 e4 | [Fd]2 [DF]2 !fermata![FB]2 [FA]2 | [EG]2 [EG]2 [Ec]2 [DB]2 | %17
w: ||||
w: love- ly, love- ly|lit- tle|ones, The bless- èd,|bless- èd lit- tle|
w: ||||
w: ||||
 [CA]6 |] %18
w: |
w: ones,|
w: |
w: |
V:2
 x2 | x8 | x8 | x8 | x8 | x8 | x8 | x8 | x6 || x2 | A2 A2 A2 A2 | x6 E2 | G2 G2 G2 G2 | x8 | %14
 A2 A2 A2 A2 | x8 | x8 | x6 |] %18
V:3
 [A,,A,]2 | [A,,A,]2 [A,,C]2 [A,,A,]2 [C,A,]2 | [D,A,]2 [D,A,]2 [D,A,]2 [D,A,]2 | %3
 [E,C]2 [E,B,]2 [E,B,]2 [E,G,]2 | [A,,A,]6 [A,,A,]2 | [A,,A,]2 [A,,C]2 [A,,A,]2 [C,A,]2 | %6
 [D,A,]2 [D,A,]2 [D,D]2 [D,D]2 | [E,B,]2 [E,B,]2 [E,A,]2 [E,G,]2 | [A,,A,]6 || [A,C]2 | %10
 [A,E]2 [A,E]2 [A,C]2 [A,C]2 | [E,E]2 [E,E]2 [E,E]2 [E,E]2 | [E,E]2 [E,E]2 [E,E]2 [E,E]2 | %13
 [A,E]2 [A,E]2 [A,E]2 [A,C]2 | [A,E]2 [A,E]2 [A,C]2 [C,A,]2 | [D,A,]2 [D,A,]2 [D,D]2 [D,D]2 | %16
 [E,B,]2 [E,B,]2 [E,A,]2 [E,G,]2 | [A,,A,]6 |] %18

